; generated by Slic3r Prusa Edition 1.41.0+linux64 on 2018-10-28 at 19:41:56

; 

; external perimeters extrusion width = 0.56mm
; perimeters extrusion width = 0.56mm
; infill extrusion width = 0.56mm
; solid infill extrusion width = 0.56mm
; top infill extrusion width = 0.50mm
; first layer extrusion width = 0.70mm

M107
M104 S200 ; set temperature
G28 ; home all axes
G1 Z5 F5000 ; lift nozzle
; Filament gcode
M109 S200 ; set temperature and wait for it to be reached
G21 ; set units to millimeters
G90 ; use absolute coordinates
M82 ; use absolute distances for extrusion
G92 E0
G1 Z0.350 F7800.000
G1 E-2.00000 F2400.00000
G92 E0
G1 X83.702 Y86.396 F7800.000
G1 E2.00000 F2400.00000
G1 F1800
G1 X84.654 Y85.474 E2.04101
G1 X85.536 Y84.908 E2.07343
G1 X86.505 Y84.494 E2.10604
G1 X87.826 Y84.144 E2.14834
G1 X89.229 Y83.955 E2.19212
G1 X110.029 Y83.926 E2.83572
G1 X111.480 Y84.028 E2.88071
G1 X112.808 Y84.291 E2.92262
G1 X113.976 Y84.677 E2.96067
G1 X114.990 Y85.225 E2.99634
G1 X115.901 Y85.962 E3.03258
G1 X116.659 Y86.855 E3.06883
G1 X117.240 Y87.872 E3.10508
G1 X117.623 Y88.979 E3.14132
G1 X117.859 Y90.922 E3.20188
G1 X117.861 Y100.468 E3.49725
G1 X117.800 Y101.310 E3.52335
G1 X117.511 Y102.509 E3.56151
G1 X116.991 Y103.634 E3.59985
G1 X116.218 Y104.692 E3.64041
G1 X115.317 Y105.534 E3.67857
G1 X114.380 Y106.128 E3.71290
G1 X113.359 Y106.547 E3.74704
G1 X111.999 Y106.861 E3.79022
G1 X110.553 Y107.017 E3.83523
G1 X89.560 Y107.023 E4.48479
G1 X87.550 Y106.775 E4.54745
G1 X85.930 Y106.277 E4.59989
G1 X85.222 Y105.903 E4.62465
G1 X84.563 Y105.439 E4.64960
G1 X83.972 Y104.899 E4.67435
G1 X83.439 Y104.272 E4.69982
G1 X82.954 Y103.537 E4.72707
G1 X82.573 Y102.736 E4.75451
G1 X82.310 Y101.896 E4.78176
G1 X82.167 Y101.027 E4.80901
G1 X82.154 Y90.605 E5.13148
G1 X82.340 Y89.071 E5.17928
G1 X82.816 Y87.722 E5.22355
G1 X83.604 Y86.491 E5.26878
G1 X83.648 Y86.449 E5.27067
; PURGING FINISHED
G1 E3.27067 F2400.00000
G92 E0
G1 X89.116 Y100.283 F7800.000
G1 E2.00000 F2400.00000
G1 F1800
G1 X88.801 Y100.220 E2.00995
G1 X88.799 Y99.353 E2.03678
G1 X89.367 Y99.999 E2.06341
G1 X89.166 Y100.227 E2.07281
G1 X88.842 Y100.116 F7800.000
G1 X90.000 Y99.265
G1 F1800
G1 X89.571 Y98.750 E2.09355
G1 X90.006 Y98.228 E2.11456
G1 X90.430 Y98.748 E2.13533
G1 X90.048 Y99.208 E2.15383
G1 X89.778 Y98.817 F7800.000
G1 X91.200 Y98.123
G1 F1800
G1 X90.638 Y97.500 E2.17981
G1 X91.200 Y96.877 E2.20578
G1 X91.200 Y98.048 E2.24202
G1 X91.689 Y98.019 F7800.000
G1 X90.000 Y96.765
G1 F1800
G1 X89.571 Y96.250 E2.26276
G1 X90.006 Y95.728 E2.28377
G1 X90.430 Y96.248 E2.30454
G1 X90.048 Y96.708 E2.32304
G1 X89.778 Y96.317 F7800.000
G1 X91.200 Y95.623
G1 F1800
G1 X90.638 Y95.000 E2.34901
G1 X91.200 Y94.377 E2.37499
G1 X91.200 Y95.548 E2.41123
G1 X91.689 Y95.519 F7800.000
G1 X90.000 Y94.265
G1 F1800
G1 X89.571 Y93.750 E2.43197
G1 X90.006 Y93.228 E2.45298
G1 X90.430 Y93.748 E2.47375
G1 X90.048 Y94.208 E2.49225
G1 X89.778 Y93.817 F7800.000
G1 X91.200 Y93.123
G1 F1800
G1 X90.638 Y92.500 E2.51822
G1 X91.200 Y91.877 E2.54420
G1 X91.200 Y93.048 E2.58044
G1 X91.689 Y93.019 F7800.000
G1 X90.000 Y91.765
G1 F1800
G1 X89.571 Y91.250 E2.60119
G1 X90.000 Y90.733 E2.62197
G1 X90.429 Y91.250 E2.64276
G1 X90.048 Y91.708 E2.66119
G1 X89.777 Y91.318 F7800.000
G1 X89.279 Y92.399
G1 F1800
G1 X89.365 Y92.497 E2.66523
G1 X88.800 Y93.123 E2.69133
G1 X88.800 Y91.853 E2.73062
G1 X89.229 Y92.342 E2.75076
G1 X89.315 Y92.524 F7800.000
G1 E0.75076 F2400.00000
G92 E0
G1 X88.800 Y94.353 F7800.000
G1 E2.00000 F2400.00000
G1 F1800
G1 X89.365 Y94.997 E2.02650
G1 X88.800 Y95.623 E2.05261
G1 X88.800 Y94.428 E2.08958
G1 X88.309 Y94.451 F7800.000
G1 E0.08958 F2400.00000
G92 E0
G1 X88.800 Y96.853 F7800.000
G1 E2.00000 F2400.00000
G1 F1800
G1 X89.365 Y97.497 E2.02650
G1 X88.800 Y98.123 E2.05261
G1 X88.800 Y96.928 E2.08958
G1 X88.309 Y96.951 F7800.000
G1 E0.08958 F2400.00000
G92 E0
G1 X91.201 Y99.376 F7800.000
G1 E2.00000 F2400.00000
G1 F1800
G1 X91.199 Y100.220 E2.02610
G1 X90.884 Y100.283 E2.03605
G1 X90.636 Y100.003 E2.04764
G1 X91.151 Y99.432 E2.07141
G1 X91.144 Y99.873 F7800.000
G1 E0.07141 F2400.00000
G92 E0
G1 X108.799 Y99.394 F7800.000
G1 E2.00000 F2400.00000
G1 F1800
G1 X108.799 Y99.353 E2.00126
G1 X109.367 Y99.999 E2.02789
G1 X109.116 Y100.283 E2.03961
G1 X108.801 Y100.220 E2.04956
G1 X108.799 Y99.469 E2.07281
G1 X108.832 Y99.369 F7800.000
G1 X109.572 Y98.751
G1 F1800
G1 X110.006 Y98.228 E2.09382
G1 X110.430 Y98.748 E2.11460
G1 X110.000 Y99.265 E2.13542
G1 X109.620 Y98.808 E2.15381
G1 X109.988 Y98.474 F7800.000
G1 X110.781 Y97.659
G1 F1800
G1 X110.638 Y97.500 E2.16044
G1 X111.200 Y96.877 E2.18641
G1 X111.200 Y98.123 E2.22497
G1 X110.832 Y97.715 E2.24200
G1 X110.713 Y97.456 F7800.000
G1 X110.000 Y96.765
G1 F1800
G1 X109.571 Y96.250 E2.26274
G1 X110.006 Y95.728 E2.28375
G1 X110.430 Y96.248 E2.30452
G1 X110.048 Y96.708 E2.32302
G1 X109.778 Y96.317 F7800.000
G1 X111.200 Y95.623
G1 F1800
G1 X110.638 Y95.000 E2.34899
G1 X111.200 Y94.377 E2.37497
G1 X111.200 Y95.548 E2.41121
G1 X111.689 Y95.519 F7800.000
G1 X110.000 Y94.265
G1 F1800
G1 X109.571 Y93.750 E2.43195
G1 X110.006 Y93.228 E2.45296
G1 X110.430 Y93.748 E2.47373
G1 X110.048 Y94.208 E2.49223
G1 X109.778 Y93.817 F7800.000
G1 X111.200 Y93.123
G1 F1800
G1 X110.638 Y92.500 E2.51820
G1 X111.200 Y91.877 E2.54417
G1 X111.200 Y93.048 E2.58042
G1 X111.689 Y93.019 F7800.000
G1 X110.000 Y91.765
G1 F1800
G1 X109.571 Y91.250 E2.60117
G1 X110.000 Y90.733 E2.62195
G1 X110.429 Y91.250 E2.64274
G1 X110.048 Y91.708 E2.66117
G1 X109.777 Y91.318 F7800.000
G1 X109.279 Y92.399
G1 F1800
G1 X109.365 Y92.497 E2.66521
G1 X108.800 Y93.123 E2.69131
G1 X108.800 Y91.853 E2.73060
G1 X109.229 Y92.342 E2.75074
G1 X109.315 Y92.524 F7800.000
G1 E0.75074 F2400.00000
G92 E0
G1 X108.800 Y94.353 F7800.000
G1 E2.00000 F2400.00000
G1 F1800
G1 X109.365 Y94.997 E2.02650
G1 X108.800 Y95.623 E2.05261
G1 X108.800 Y94.428 E2.08958
G1 X108.309 Y94.451 F7800.000
G1 E0.08958 F2400.00000
G92 E0
G1 X108.800 Y96.853 F7800.000
G1 E2.00000 F2400.00000
G1 F1800
G1 X109.365 Y97.497 E2.02650
G1 X108.800 Y98.123 E2.05261
G1 X108.800 Y96.928 E2.08958
G1 X108.309 Y96.951 F7800.000
G1 E0.08958 F2400.00000
G92 E0
G1 X111.201 Y99.376 F7800.000
G1 E2.00000 F2400.00000
G1 F1800
G1 X111.199 Y100.220 E2.02610
G1 X110.884 Y100.283 E2.03605
G1 X110.636 Y100.003 E2.04764
G1 X111.151 Y99.432 E2.07141
G1 X111.144 Y99.873 F7800.000
G1 Z0.650 F7800.000
; PURGING FINISHED
G1 E0.07141 F2400.00000
G92 E0
G1 X90.000 Y97.951 F7800.000
G1 E2.00000 F2400.00000
G1 F900
G1 X89.653 Y97.500 E2.01203
G1 X90.000 Y97.049 E2.02406
G1 X90.347 Y97.500 E2.03609
G1 X90.046 Y97.892 E2.04654
G1 E0.04654 F2400.00000
G92 E0
G1 X90.000 Y95.451 F7800.000
G1 E2.00000 F2400.00000
G1 F900
G1 X89.653 Y95.000 E2.01203
G1 X90.000 Y94.549 E2.02406
G1 X90.347 Y95.000 E2.03609
G1 X90.046 Y95.392 E2.04654
G1 E0.04654 F2400.00000
G92 E0
G1 X90.000 Y92.951 F7800.000
G1 E2.00000 F2400.00000
G1 F900
G1 X89.653 Y92.500 E2.01203
G1 X90.000 Y92.049 E2.02406
G1 X90.347 Y92.500 E2.03609
G1 X90.046 Y92.892 E2.04654
G1 X90.189 Y91.478 F7800.000
G1 F900
G1 X90.975 Y92.500 E2.07379
G1 X90.189 Y93.522 E2.10105
G1 X90.461 Y93.750 E2.10854
G1 X90.189 Y93.978 E2.11603
G1 X90.975 Y95.000 E2.14328
G1 X90.189 Y96.022 E2.17054
G1 X90.461 Y96.250 E2.17803
G1 X90.189 Y96.478 E2.18552
G1 X90.975 Y97.500 E2.21277
G1 X90.189 Y98.522 E2.24003
G1 X90.461 Y98.750 E2.24752
G1 X90.189 Y98.978 E2.25501
G1 X90.975 Y100.000 E2.28226
G1 X90.768 Y100.268 E2.28942
G1 X90.443 Y100.321 E2.29638
G1 X89.822 Y100.341 E2.30952
G1 X89.518 Y100.318 E2.31597
G1 X89.233 Y100.270 E2.32207
G1 X89.025 Y100.000 E2.32927
G1 X89.811 Y98.978 E2.35652
G1 X89.539 Y98.750 E2.36401
G1 X89.811 Y98.522 E2.37150
G1 X89.025 Y97.500 E2.39876
G1 X89.811 Y96.478 E2.42601
G1 X89.539 Y96.250 E2.43350
G1 X89.811 Y96.022 E2.44099
G1 X89.025 Y95.000 E2.46825
G1 X89.811 Y93.978 E2.49550
G1 X89.539 Y93.750 E2.50299
G1 X89.811 Y93.522 E2.51048
G1 X89.025 Y92.500 E2.53774
G1 X89.811 Y91.478 E2.56499
G1 X89.540 Y91.251 E2.57245
G1 X89.813 Y91.013 E2.58010
G1 X89.456 Y90.553 E2.59241
G1 X90.164 Y90.536 E2.60740
G1 X90.522 Y90.581 E2.61501
G1 X90.166 Y91.037 E2.62724
G1 X90.434 Y91.273 E2.63478
G1 X90.247 Y91.429 E2.63993
G1 X91.603 Y92.500 F7800.000
G1 F900
G1 X90.875 Y93.447 E2.66518
G1 X91.237 Y93.750 E2.67515
G1 X90.875 Y94.053 E2.68511
G1 X91.603 Y95.000 E2.71036
G1 X90.875 Y95.947 E2.73562
G1 X91.237 Y96.250 E2.74558
G1 X90.875 Y96.553 E2.75555
G1 X91.603 Y97.500 E2.78080
G1 X90.875 Y98.447 E2.80605
G1 X91.237 Y98.750 E2.81601
G1 X90.875 Y99.053 E2.82598
G1 X91.603 Y100.000 E2.85122
G1 X91.043 Y100.728 E2.87064
G1 X90.491 Y100.818 E2.88246
G1 X89.811 Y100.840 E2.89685
G1 X89.457 Y100.813 E2.90435
G1 X88.958 Y100.729 E2.91506
G1 X88.397 Y100.000 E2.93449
G1 X89.125 Y99.053 E2.95974
G1 X88.763 Y98.750 E2.96971
G1 X89.125 Y98.447 E2.97967
G1 X88.397 Y97.500 E3.00492
G1 X89.125 Y96.553 E3.03017
G1 X88.763 Y96.250 E3.04014
G1 X89.125 Y95.947 E3.05010
G1 X88.397 Y95.000 E3.07535
G1 X89.125 Y94.053 E3.10060
G1 X88.763 Y93.750 E3.11057
G1 X89.125 Y93.447 E3.12053
G1 X88.397 Y92.500 E3.14578
G1 X89.125 Y91.553 E3.17103
G1 X88.774 Y91.259 E3.18072
G1 X89.131 Y90.947 E3.19074
G1 X88.601 Y90.266 E3.20897
G1 X89.159 Y90.119 E3.22117
G1 X89.610 Y90.051 E3.23081
G1 X90.189 Y90.037 E3.24305
G1 X90.844 Y90.120 E3.25700
G1 X91.398 Y90.266 E3.26912
G1 X90.848 Y90.973 E3.28807
G1 X91.199 Y91.282 E3.29795
G1 X90.875 Y91.553 E3.30687
G1 X91.557 Y92.441 E3.33054
G1 X91.112 Y92.596 F7800.000
G1 X91.450 Y91.248
G1 F900
G1 X91.799 Y90.900 E3.34096
G1 X92.084 Y90.614 E3.35218
G1 X92.314 Y90.908 E3.36254
G1 X92.314 Y91.591 E3.38152
G1 X92.078 Y91.894 E3.39218
G1 X91.789 Y91.597 E3.40367
G1 X91.502 Y91.302 E3.41238
G1 X91.839 Y91.552 F7800.000
G1 E1.41238 F2400.00000
G92 E0
G1 X91.452 Y93.750 F7800.000
G1 E2.00000 F2400.00000
G1 F900
G1 X91.791 Y93.401 E2.01029
G1 X92.078 Y93.106 E2.02171
G1 X92.314 Y93.409 E2.03238
G1 X92.314 Y94.091 E2.05135
G1 X92.078 Y94.394 E2.06201
G1 X91.791 Y94.099 E2.07344
G1 X91.504 Y93.804 E2.08214
G1 X91.816 Y94.073 F7800.000
G1 E0.08214 F2400.00000
G92 E0
G1 X91.452 Y96.250 F7800.000
G1 E2.00000 F2400.00000
G1 F900
G1 X91.791 Y95.901 E2.01029
G1 X92.078 Y95.606 E2.02171
G1 X92.314 Y95.909 E2.03238
G1 X92.314 Y96.591 E2.05135
G1 X92.078 Y96.894 E2.06201
G1 X91.791 Y96.599 E2.07344
G1 X91.504 Y96.304 E2.08214
G1 X91.797 Y96.593 F7800.000
G1 E0.08214 F2400.00000
G92 E0
G1 X91.452 Y98.750 F7800.000
G1 E2.00000 F2400.00000
G1 F900
G1 X91.791 Y98.401 E2.01029
G1 X92.078 Y98.106 E2.02171
G1 X92.314 Y98.409 E2.03238
G1 X92.314 Y99.091 E2.05135
G1 X92.078 Y99.394 E2.06201
G1 X91.791 Y99.099 E2.07344
G1 X91.504 Y98.804 E2.08214
G1 X91.783 Y99.107 F7800.000
G1 E0.08214 F2400.00000
G92 E0
G1 X88.548 Y98.750 F7800.000
G1 E2.00000 F2400.00000
G1 F900
G1 X88.209 Y99.099 E2.01029
G1 X87.922 Y99.394 E2.02171
G1 X87.686 Y99.091 E2.03238
G1 X87.686 Y98.409 E2.05135
G1 X87.922 Y98.106 E2.06201
G1 X88.209 Y98.401 E2.07344
G1 X88.496 Y98.696 E2.08214
G1 X88.068 Y98.829 F7800.000
G1 E0.08214 F2400.00000
G92 E0
G1 X88.548 Y96.250 F7800.000
G1 E2.00000 F2400.00000
G1 F900
G1 X88.209 Y96.599 E2.01029
G1 X87.922 Y96.894 E2.02171
G1 X87.686 Y96.591 E2.03238
G1 X87.686 Y95.909 E2.05135
G1 X87.922 Y95.606 E2.06201
G1 X88.209 Y95.901 E2.07344
G1 X88.496 Y96.196 E2.08214
G1 X88.071 Y96.346 F7800.000
G1 E0.08214 F2400.00000
G92 E0
G1 X88.548 Y93.750 F7800.000
G1 E2.00000 F2400.00000
G1 F900
G1 X88.209 Y94.099 E2.01029
G1 X87.922 Y94.394 E2.02171
G1 X87.686 Y94.091 E2.03238
G1 X87.686 Y93.409 E2.05135
G1 X87.922 Y93.106 E2.06201
G1 X88.209 Y93.401 E2.07344
G1 X88.496 Y93.696 E2.08214
G1 X88.077 Y93.871 F7800.000
G1 E0.08214 F2400.00000
G92 E0
G1 X88.550 Y91.248 F7800.000
G1 E2.00000 F2400.00000
G1 F900
G1 X88.211 Y91.597 E2.01029
G1 X87.922 Y91.894 E2.02178
G1 X87.686 Y91.591 E2.03244
G1 X87.686 Y90.908 E2.05142
G1 X87.915 Y90.614 E2.06177
G1 X88.201 Y90.900 E2.07300
G1 X88.497 Y91.195 E2.08183
G1 X88.090 Y91.408 F7800.000
G1 E0.08183 F2400.00000
G92 E0
G1 X110.000 Y97.951 F7800.000
G1 E2.00000 F2400.00000
G1 F900
G1 X109.653 Y97.500 E2.01203
G1 X110.000 Y97.049 E2.02406
G1 X110.347 Y97.500 E2.03609
G1 X110.046 Y97.892 E2.04654
G1 E0.04654 F2400.00000
G92 E0
G1 X110.000 Y95.451 F7800.000
G1 E2.00000 F2400.00000
G1 F900
G1 X109.653 Y95.000 E2.01203
G1 X110.000 Y94.549 E2.02406
G1 X110.347 Y95.000 E2.03609
G1 X110.046 Y95.392 E2.04654
G1 E0.04654 F2400.00000
G92 E0
G1 X110.000 Y92.951 F7800.000
G1 E2.00000 F2400.00000
G1 F900
G1 X109.653 Y92.500 E2.01203
G1 X110.000 Y92.049 E2.02406
G1 X110.347 Y92.500 E2.03609
G1 X110.046 Y92.892 E2.04654
G1 X110.189 Y91.478 F7800.000
G1 F900
G1 X110.975 Y92.500 E2.07379
G1 X110.189 Y93.522 E2.10105
G1 X110.461 Y93.750 E2.10854
G1 X110.189 Y93.978 E2.11603
G1 X110.975 Y95.000 E2.14328
G1 X110.189 Y96.022 E2.17054
G1 X110.461 Y96.250 E2.17803
G1 X110.189 Y96.478 E2.18552
G1 X110.975 Y97.500 E2.21277
G1 X110.189 Y98.522 E2.24003
G1 X110.461 Y98.750 E2.24752
G1 X110.189 Y98.978 E2.25501
G1 X110.975 Y100.000 E2.28226
G1 X110.768 Y100.268 E2.28942
G1 X110.443 Y100.321 E2.29638
G1 X109.822 Y100.341 E2.30952
G1 X109.518 Y100.318 E2.31597
G1 X109.233 Y100.270 E2.32207
G1 X109.025 Y100.000 E2.32927
G1 X109.811 Y98.978 E2.35652
G1 X109.539 Y98.750 E2.36401
G1 X109.811 Y98.522 E2.37150
G1 X109.025 Y97.500 E2.39876
G1 X109.811 Y96.478 E2.42601
G1 X109.539 Y96.250 E2.43350
G1 X109.811 Y96.022 E2.44099
G1 X109.025 Y95.000 E2.46825
G1 X109.811 Y93.978 E2.49550
G1 X109.539 Y93.750 E2.50299
G1 X109.811 Y93.522 E2.51048
G1 X109.025 Y92.500 E2.53774
G1 X109.811 Y91.478 E2.56499
G1 X109.540 Y91.251 E2.57245
G1 X109.813 Y91.013 E2.58010
G1 X109.456 Y90.553 E2.59241
G1 X110.164 Y90.536 E2.60740
G1 X110.522 Y90.581 E2.61501
G1 X110.166 Y91.037 E2.62724
G1 X110.434 Y91.273 E2.63478
G1 X110.247 Y91.429 E2.63993
G1 X111.603 Y92.500 F7800.000
G1 F900
G1 X110.875 Y93.447 E2.66518
G1 X111.237 Y93.750 E2.67515
G1 X110.875 Y94.053 E2.68511
G1 X111.603 Y95.000 E2.71036
G1 X110.875 Y95.947 E2.73562
G1 X111.237 Y96.250 E2.74558
G1 X110.875 Y96.553 E2.75555
G1 X111.603 Y97.500 E2.78080
G1 X110.875 Y98.447 E2.80605
G1 X111.237 Y98.750 E2.81601
G1 X110.875 Y99.053 E2.82598
G1 X111.603 Y100.000 E2.85122
G1 X111.043 Y100.728 E2.87064
G1 X110.491 Y100.818 E2.88246
G1 X109.811 Y100.840 E2.89685
G1 X109.457 Y100.813 E2.90435
G1 X108.958 Y100.729 E2.91506
G1 X108.397 Y100.000 E2.93449
G1 X109.125 Y99.053 E2.95974
G1 X108.763 Y98.750 E2.96971
G1 X109.125 Y98.447 E2.97967
G1 X108.397 Y97.500 E3.00492
G1 X109.125 Y96.553 E3.03017
G1 X108.763 Y96.250 E3.04014
G1 X109.125 Y95.947 E3.05010
G1 X108.397 Y95.000 E3.07535
G1 X109.125 Y94.053 E3.10060
G1 X108.763 Y93.750 E3.11057
G1 X109.125 Y93.447 E3.12053
G1 X108.397 Y92.500 E3.14578
G1 X109.125 Y91.553 E3.17103
G1 X108.774 Y91.259 E3.18072
G1 X109.131 Y90.947 E3.19074
G1 X108.601 Y90.266 E3.20897
G1 X109.159 Y90.119 E3.22117
G1 X109.610 Y90.051 E3.23081
G1 X110.189 Y90.037 E3.24305
G1 X110.844 Y90.120 E3.25700
G1 X111.398 Y90.266 E3.26912
G1 X110.848 Y90.973 E3.28807
G1 X111.199 Y91.282 E3.29795
G1 X110.875 Y91.553 E3.30687
G1 X111.557 Y92.441 E3.33054
G1 X111.112 Y92.596 F7800.000
G1 X111.450 Y91.248
G1 F900
G1 X111.799 Y90.900 E3.34096
G1 X112.084 Y90.614 E3.35218
G1 X112.314 Y90.908 E3.36254
G1 X112.314 Y91.591 E3.38152
G1 X112.078 Y91.894 E3.39218
G1 X111.789 Y91.597 E3.40367
G1 X111.502 Y91.302 E3.41238
G1 X111.839 Y91.552 F7800.000
G1 E1.41238 F2400.00000
G92 E0
G1 X111.452 Y93.750 F7800.000
G1 E2.00000 F2400.00000
G1 F900
G1 X111.791 Y93.401 E2.01029
G1 X112.078 Y93.106 E2.02171
G1 X112.314 Y93.409 E2.03238
G1 X112.314 Y94.091 E2.05135
G1 X112.078 Y94.394 E2.06201
G1 X111.791 Y94.099 E2.07344
G1 X111.504 Y93.804 E2.08214
G1 X111.816 Y94.073 F7800.000
G1 E0.08214 F2400.00000
G92 E0
G1 X111.452 Y96.250 F7800.000
G1 E2.00000 F2400.00000
G1 F900
G1 X111.791 Y95.901 E2.01029
G1 X112.078 Y95.606 E2.02171
G1 X112.314 Y95.909 E2.03238
G1 X112.314 Y96.591 E2.05135
G1 X112.078 Y96.894 E2.06201
G1 X111.791 Y96.599 E2.07344
G1 X111.504 Y96.304 E2.08214
G1 X111.797 Y96.593 F7800.000
G1 E0.08214 F2400.00000
